X: 11299
T: Eadails
R: jig
M: 6/8
K: Gmajor
|:B|dBG GFG|DGG DGG|dBG GFG|Add cAF|
dBG GFG|DGG FGA|Bcd cAF|AGF G2:|
|:d|gdB edB|ded dBd|gdB edB|cAG F2 d|
gdB edB|ded dBc|dcA DEF|AGF G2:|

